packages/core/src/svgs/tokens/branded/BUILD.svg

<svg width="24" height="24" viewBox="0 0 24 24" fill="none" xmlns="http://www.w3.org/2000/svg">
<path fill-rule="evenodd" clip-rule="evenodd" d="M14.5009 12.8048V11.2149C14.5009 10.6798 13.496 10.2498 12.2509 10.2498C11.0059 10.2498 10.001 10.6798 10.001 11.2149V12.8048C10.0259 13.3298 11.0259 13.7498 12.2509 13.7498C13.4759 13.7498 14.476 13.3298 14.5009 12.8048ZM12.0009 13.2948V12.3898C13.0909 12.4898 13.8359 12.1199 14.0009 11.9199V12.8048C13.4759 13.3099 12.4009 13.3398 12.0009 13.2948ZM12.2509 11.9348C13.181 11.9348 13.9359 11.6449 13.9359 11.2899C13.9359 10.9399 13.186 10.6448 12.2509 10.6448C11.3209 10.6448 10.5659 10.9349 10.5659 11.2949C10.5659 11.6449 11.3159 11.9348 12.2509 11.9348Z" fill="url(#paint0_linear_364_4908)"/>
<path fill-rule="evenodd" clip-rule="evenodd" d="M19.5 9.215C19.5 8.67999 18.495 8.24999 17.2499 8.24999C16.67 8.24999 16.14 8.34499 15.74 8.49999L14.5 8.00499V7.21499C14.5 6.68 13.495 6.25 12.25 6.25C11.005 6.25 10 6.68 10 7.21499V7.85499L8.54999 8.42499C8.12738 8.30418 7.6895 8.24523 7.24999 8.24999C6.005 8.24999 5 8.67999 5 9.215V9.81499L2 10.9849V13.705L12.075 17.75L22 13.8899V10.9849L19.5 9.99502V9.215ZM14.5 8.805C14.475 9.32999 13.4749 9.74999 12.25 9.74999C11.025 9.74999 10.025 9.32999 10 8.805V8.315L9.08998 8.65999C9.34999 8.81499 9.49998 9.00999 9.49998 9.215V10.805C9.47498 11.33 8.47499 11.75 7.24999 11.75C6.02499 11.75 5.025 11.33 5 10.805V10.205L2.875 11.005L12.015 14.545L21.29 11.005L19.5 10.34V10.805C19.475 11.33 18.4749 11.75 17.2499 11.75C16.0249 11.75 15.025 11.33 15 10.805V9.215C15 9.04999 15.095 8.9 15.2599 8.76499L14.5 8.48V8.805ZM12.5 14.915V17.1L21.5 13.6499V11.395L12.5 14.915ZM13.935 7.29C13.935 7.64499 13.185 7.93999 12.25 7.93999C11.32 7.93999 10.5649 7.64499 10.5649 7.29C10.5649 6.94 11.315 6.645 12.25 6.645C13.18 6.645 13.935 6.935 13.935 7.29499V7.29ZM11.9999 8.38999V9.28999C12.4 9.33999 13.4749 9.30999 13.9999 8.805V7.92C13.835 8.11999 13.0899 8.49 11.9999 8.38999ZM8.93499 9.28999C8.93499 9.64499 8.18499 9.93995 7.24999 9.93995C6.31999 9.93995 5.565 9.64499 5.565 9.28999C5.565 8.93999 6.31499 8.645 7.24999 8.645C8.17998 8.645 8.93499 8.935 8.93499 9.29499V9.28999ZM7 10.3899V11.29C7.39999 11.3399 8.47499 11.31 8.99999 10.805V9.92C8.83498 10.12 8.08999 10.49 7 10.3899ZM18.9349 9.28999C18.9349 9.64499 18.185 9.93995 17.2499 9.93995C16.32 9.93995 15.565 9.64499 15.565 9.28999C15.565 8.93999 16.315 8.645 17.2499 8.645C18.18 8.645 18.9349 8.935 18.9349 9.29499V9.28999ZM17 10.3899V11.29C17.4 11.3399 18.4749 11.31 18.9999 10.805V9.92C18.835 10.12 18.0899 10.49 17 10.3899Z" fill="url(#paint1_linear_364_4908)"/>
<defs>
<linearGradient id="paint0_linear_364_4908" x1="5.72236" y1="8.2439" x2="15.3046" y2="27.3854" gradientUnits="userSpaceOnUse">
<stop stop-color="#1A1E21"/>
<stop offset="1" stop-color="#06060A"/>
</linearGradient>
<linearGradient id="paint1_linear_364_4908" x1="5.72143" y1="8.24402" x2="15.3037" y2="27.3855" gradientUnits="userSpaceOnUse">
<stop stop-color="#1A1E21"/>
<stop offset="1" stop-color="#06060A"/>
</linearGradient>
</defs>
</svg>

<svg xmlns="http://www.w3.org/2000/svg" width="24" height="24" fill="none" viewBox="0 0 24 24">
    <path fill="url(#BUILD__a)" fill-rule="evenodd" d="M14.5 12.805v-1.59c0-.535-1.004-.965-2.25-.965-1.244 0-2.249.43-2.249.965v1.59c.025.525 1.025.945 2.25.945s2.225-.42 2.25-.945m-2.5.49v-.905c1.09.1 1.836-.27 2-.47v.885c-.524.505-1.6.535-2 .49m.25-1.36c.931 0 1.686-.29 1.686-.645 0-.35-.75-.645-1.685-.645-.93 0-1.685.29-1.685.65 0 .35.75.64 1.685.64" clip-rule="evenodd"/>
    <path fill="url(#BUILD__b)" fill-rule="evenodd" d="M19.5 9.215c0-.535-1.005-.965-2.25-.965-.58 0-1.11.095-1.51.25l-1.24-.495v-.79c0-.535-1.005-.965-2.25-.965S10 6.68 10 7.215v.64l-1.45.57a4.6 4.6 0 0 0-1.3-.175c-1.245 0-2.25.43-2.25.965v.6l-3 1.17v2.72l10.075 4.045L22 13.89v-2.905l-2.5-.99zm-5-.41c-.025.525-1.025.945-2.25.945s-2.225-.42-2.25-.945v-.49l-.91.345c.26.155.41.35.41.555v1.59c-.025.525-1.025.945-2.25.945s-2.225-.42-2.25-.945v-.6l-2.125.8 9.14 3.54 9.275-3.54-1.79-.665v.465c-.025.525-1.025.945-2.25.945s-2.225-.42-2.25-.945v-1.59c0-.165.095-.315.26-.45l-.76-.285zm-2 6.11V17.1l9-3.45v-2.255zm1.435-7.625c0 .355-.75.65-1.685.65-.93 0-1.685-.295-1.685-.65 0-.35.75-.645 1.685-.645.93 0 1.685.29 1.685.65zM12 8.39v.9c.4.05 1.475.02 2-.485V7.92c-.165.2-.91.57-2 .47m-3.065.9c0 .355-.75.65-1.685.65-.93 0-1.685-.295-1.685-.65 0-.35.75-.645 1.685-.645.93 0 1.685.29 1.685.65zM7 10.39v.9c.4.05 1.475.02 2-.485V9.92c-.165.2-.91.57-2 .47m11.935-1.1c0 .355-.75.65-1.685.65-.93 0-1.685-.295-1.685-.65 0-.35.75-.645 1.685-.645.93 0 1.685.29 1.685.65zM17 10.39v.9c.4.05 1.475.02 2-.485V9.92c-.165.2-.91.57-2 .47" clip-rule="evenodd"/>
    <defs>
        <linearGradient id="BUILD__a" x1="5.722" x2="15.305" y1="8.244" y2="27.385" gradientUnits="userSpaceOnUse">
            <stop stop-color="#1A1E21"/>
            <stop offset="1" stop-color="#06060A"/>
        </linearGradient>
        <linearGradient id="BUILD__b" x1="5.721" x2="15.304" y1="8.244" y2="27.386" gradientUnits="userSpaceOnUse">
            <stop stop-color="#1A1E21"/>
            <stop offset="1" stop-color="#06060A"/>
        </linearGradient>
    </defs>
</svg>
